X:1
T:Frauenliebe und Leben, Op.42
T:Süsser Freund, du blickest
T:6. Süsser Freund, du blickest
T:Robert Schumann
T:Frauenliebe und Leben, Op.42
T:Adelbert von Chamisso
T:OpenScore (CC0)
T:OpenScore (CC0)
C:Robert Schumann
Z:Adelbert von Chamisso
Z:OpenScore (CC0)
%%score 1 { ( 2 4 ) | ( 3 5 ) }
L:1/8
Q:1/4=80
M:4/4
K:G
V:1 treble nm="Voice"
V:2 treble nm="Piano"
V:4 treble 
V:3 bass 
V:5 bass 
V:1
"^Langsam, mit innigem Ausdruck." z8 | z2!p! d4- d ^A | B3 G G G G3/2 F/ | B3/2 A/ A2 z4 | %4
w: |Sü- * sser|Freund, du blick- est mich ver-|wun- dert  an,|
 z2 d4- d ^A | B3 G G G G F | B3/2 A/ A2 z2 G3/2 A/ | B3 B d3 d | c3/2 c/ ^G G A2 z2 | %9
w: kannst _ es|nicht be- grei- fen, wie ich|wei- nen kann; lass der|feuch- ten Per- len|un- ge- wohn- te Zier|
 e3/2 A/ A A A ^A B3/2 =G/ | G3/2 F/ F2 z4 | z2!p! d4- d ^A | B3 G G G G3/2 F/ | B3/2 A/ A2 z4 | %14
w: freu- dig hell er- zit- tern in dem|Au- ge mir.|Wie _ so|bang mein Bu- sen, wie so|won- ne- voll!|
 z2 d4- d ^A | B3 G G G G F | B3/2 A/ A2 z2 G3/2 A/ | B3 B d3 d | c3/2 c/ ^G G A2 z2 | %19
w: wüsst' _ ich|nur mit Wor- ten, wie ich's|sa- gen  soll; komm  und|birg dein Ant- litz|hier an mei- ner Brust,|
 A A (3(AB) A e ^c B A | G F F2 z4 | z8 | z8 | z8 ||[K:C] G3 G c3 ^G | A2 A2 z4 | z2 A A d3 ^A | %27
w: will ins Ohr _ dir flü- stern al- le|mei- ne Lust||||Weisst du nun die|Thrä- nen,|die ich wei- nen|
 B4 z4 | B3 B d3 c | B2 A4 G G | F2 F F A3 A | G4[Q:1/4=100]"_Lebhafter." z4 | z8 | z8 | %34
w: kann,|sollst du nicht sie|se- hen, du ge-|lieb- ter, ge- lieb- ter|Mann!|||
 c3 G G3 F | E2 G4 z2 | c3 G G3 F | E4 z2 G G | F3 F!<(! A3 A | G3 G B3 B!<)! | A4 d3 c | %41
w: Bleib' an mei- nem|Her- zen,|füh- le des- sen|Schlag, dass ich|fest und fe- ster|nur dich drü- cken|mag, fest und|
 c2 B2 z4 | z8 | z8 ||[K:G] z2!p! d4- d ^A | B3 G G G G3/2 F/ | B3/2 A/ A2 z4 | z2 d4- d ^A | %48
w: fe- ster!|||Hier _ an|mei- nem Bet- te hat die|Wie- ge Raum,|wo _ sie|
 B3 G G G G F | B A A2 z2 G A | B3 B{/B} d d d d | c3 ^G A2 A A | %52
w: still ver- ber- ge mei- nen|hol- den Traum; kom- men|wird der Mor- gen, wo der|Traum er- wacht, und dar-|
 A3 A e[Q:1/4=92]"^ritard." G G F | B3/2 A/ A2 z4 | z8 |[Q:1/4=83]"_ritard." z8 | %56
w: aus dein Bild- niss mir ent-|ge- gen lacht,|||
[Q:1/4=74]"_Adagio." z4 z2 z!p! F | A2 G2 z4 |] %58
w: dein|Bild- niss!|
V:2
 z2!p! ([DF]4 [^CEG]>[=CDFA]) | (A15/2 ^A/ | [B,GB]4!>(! [G,^CG]4!>)! | %3
 [A,DF]2)[K:bass]!p!!<(! ([D,F,]4 [^C,E,G,]>[=C,F,A,]) | A,15/2!<)! ^A,/ | [D,G,B,]4 [^C,G,]4 | %6
 [D,F,]2[K:treble]!<(! ([DF]4 [^CEG]>[=CFA]!<)! |!<(! [B,=FB]4) [Dd]4!<)! | %8
!<(! (.[Cc]2 .[D^G]2 .[EA]2)!<)! !>![E=GA]2- |!<(! [EGA]2 [DGA]4!<)! !>![^CGA]2- | %10
 [CGA]2 ([DF]4 [^CEG]>[=CDFA]) | (A15/2 ^A/ | [B,GB]4!>(! [G,^CG]4!>)! | %13
 [A,DF]2)[K:bass]!p! ([D,F,]4!<(! [^C,E,G,]>[=C,F,A,]) | A,15/2!<)! ^A,/ | [D,G,B,]4 [^C,G,]4 | %16
 [D,F,]2[K:treble]!<(! ([DF]4 [^CEG]>[=CFA]!<)! |!<(! [B,=FB]4) [Dd]4!<)! | %18
!<(! (.[Cc]2 .[D^G]2 .[EA]2)!<)! !^![E=GA]2- |!<(! [EGA]2!<)! [DGA]4!>(! [^CGA]2- | %20
 [CGA]2!>)! ([DF]4!<(! [^CEG]>[=CDFA])!<)! |!<(! [CDFA]2 [FAd]4!<)!!>(! [FBd]>[Fcd]!>)! | %22
!<(! [Fcd]2!<)!!>(! [Bdg]4 [Beg]>!>)![B=fg] |!<(! [B=fg]8!<)! || %24
[K:C]{/e} [ce]!p! (.[EG].[EG].[EG]) (.[EG].[EG].[E^G].[EG]) | [EA][EA][EA][EA] [EA][EA][=FA][FA] | %26
 [FA][FA][FA][FA] [FA][FA][^FA][FA] | [FB][FB][FB][FB] [FB][FB][^FB][FB] | %28
 [GB][GB][GB][GB] [GBd][GBd][Gc][Gc] | [GB][GB][GA][GA] [=FA][CFA][CG][CG] | %30
!p! [DF]!<(![DF][DF][DF]!<)!!>(! [DF][DF][DF][DF]!>)! | [DF][DFG][DFG][DFG] [DFG]!<(! (BAG) | %32
 (c3 G!<)!!>(! G3 F) | (E2!>)! G2) z (BAG) | [CG][CG][CG][CG] [B,FG][B,FG][B,FG][B,FG] | %35
 [CEG][CEG][CEG][CEG] [B,DG] (BAG) |!<(! (c3 G)!<)!!>(! (G3 F)!>)! | %37
 E[EG][EG][EG] [EG][EG][EG][EG] | [EF]!<(![EF][EF][EF] [FA][FA][FA][FA] | %39
 [FG][FG][FG][FG] [GB][GB][GB]!<)![GB] | [GA][GA][GA][GA] [Ad]!<(![Ad][Ac][Ac] | %41
 [^Gc][Gc][GB][GB]!<)!!>(! [AB][AB][^Dc]>[DA]!>)! |"_dim." ([E^G]4 [E=G]4- | %43
 [EG]2) ([D-^F]4 [DG]>[DFA]) ||[K:G]!p! (A15/2 ^A/ |!>(! [B,GB]4 [G,^CG]4!>)! | %46
 [A,DF]2)[K:bass]!p!!<(! ([D,F,]4 [^C,E,G,]>[=C,F,A,])!<)! |!pp! (A,15/2 ^A,/) | %48
 [D,G,B,]4 [^C,G,]4 | [D,F,]2[K:treble]!<(! ([DF]4 [^CEG]>[=CFA])!<)! |!<(! [B,=FB]4 [Dd]4!<)! | %51
!<(! (.[Cc]2 .[D^G]2 .[EA]2)!<)!!<(! !^![E=GA]2-!<)! | [EGA]2!>(! [DGA]4"^ritard." [^CGA]2!>)! | %53
 z2!p!!<(! ([FA]4 [^CEG]>[=CDFA])!<)! | [CDFA]2!>(! ([B,GB]4 [CGc]>[DGd])!>)! | %55
!>(! [=FB=f]4-!>)! ([FBf][Ece][D^Gd][EAc]) |!<(! !arpeggio![D=GB]2!<)!{/[^CG_B]} e4 d2- | %57
!pp! d4 z4 |] %58
V:3
 z8 |!ped! [G,,D,]8- | [G,,D,]4 A,,4-!ped-up! | A,,4 x4 | [G,,,D,,]8- | [G,,,D,,]4 A,,,4 | %6
 [D,,,D,,]4 z4 | [G,,D,-]4 [^G,,D,=F,]4 | (.[A,,E,]2 .[B,,E,]2 .[C,E,]2) [^C,A,]2- | %9
 [C,A,]2 [D,A,]4 [E,A,]2- | [E,A,]2 D,6 | [G,,D,]8- | [G,,D,]4 A,,4 | A,,4 z4 | [G,,,D,,]8- | %15
 [G,,,D,,]4 A,,,4 | [D,,,D,,]4 z4 | [G,,D,-]4 [^G,,D,=F,]4 | %18
 (.[A,,E,]2 .[B,,E,]2 .[C,E,]2) !^![^C,A,]2- | [C,A,]2 [D,A,]4 [E,A,]2- | [E,A,]2 D,6 | %21
!ped! [G,,D,]2 [CD]4!ped-up! [B,D]>[A,D] | [A,D]2 [G,=FG]4 [EG]>[DG] | [DG]8 ||[K:C] [CG] z z2 z4 | %25
 z2 (=F,4 ^C,2- | C,2 D,4) z2 | z2!p! (G,4 ^D,2- | D,2) E,6- | E,2 =F,4 [E,G,]2 | %30
 [D,A,][D,A,][D,A,][D,A,] [C,A,][C,A,][C,A,][C,A,] | %31
 [B,,G,][B,,G,][B,,G,][B,,G,] [B,,G,] [F,G,D][F,G,D][F,G,D] | %32
 [E,G,C][E,G,C][E,G,C][E,G,C] [D,G,C][D,G,C][D,G,B,][D,G,B,] | %33
 [C,G,C][C,G,C][C,G,C][C,G,C] [F,G,D][F,G,D][F,G,D][F,G,D] | %34
 [E,G,][E,G,][E,G,][E,G,] [D,G,][D,G,][D,G,][D,G,] | %35
 [C,G,][C,G,][C,G,][C,G,] [F,G,][F,G,D][F,G,D][F,G,D] | %36
 [E,G,C][E,G,C][E,G,C][E,G,C] [D,G,B,][D,G,B,][D,G,B,][D,G,B,] | %37
 [^C,G,_B,][C,G,B,][C,G,B,][C,G,B,] [C,A,][C,A,][C,A,][C,A,] | %38
 [D,A,][D,A,][D,A,][D,A,] [D,=B,][D,B,][D,B,][D,B,] | %39
 [E,B,][E,B,][E,B,][E,B,] [E,C][E,C][E,C][E,C] | [F,C][F,C][F,C][F,C] [F,D][F,D][F,D][F,D] | %41
 [F,D][F,D][F,D][F,D] [^F,^D][F,D][F,A,]>[F,C] | ([E,B,]4 [^C,_B,]4- | %43
 [C,B,]2) A,4 =B,>[I:staff -1]C ||[K:G]!ped![I:staff +1] [G,,D,]8-!ped-up! | [G,,D,]4 A,,4- | %46
 A,,4 x4 | [G,,,D,,]8- | [G,,,D,,]4 A,,,4 | [D,,,D,,]4 z4 | ([G,,D,-]4 [^G,,D,=F,]4) | %51
 (.[A,,E,]2 .[B,,E,]2 .[C,E,]2) !^![^C,A,]2- | [C,A,]2 [D,A,]4 [D,A,]2 | z2 D,6 | %54
!ped! [G,,C,]2 ([=F,G,D]4!ped-up!!ped! [E,G,C]>[D,G,B,])!ped-up! | [^G,D]4- [G,D][A,C]B,C | %56
!ped! D,4- [D,-=C]4!ped-up! | [G,,D,B,]4 z4 |] %58
V:4
 x8 | [CDF]8 | x8 | x2[K:bass] x6 | [C,D,-F,]8 | x8 | x2[K:treble] x6 | x8 | x8 | x8 | x8 | %11
 [CDF]8 | x8 | x2[K:bass] x6 | [C,D,-F,]8 | x8 | x2[K:treble] x6 | x8 | x8 | x8 | x8 | x8 | x8 | %23
 x2 x2!>(! x2 x2!>)! ||[K:C] x8 | x8 | x8 | x8 | x8 | x8 | x8 | x8 | x8 | x8 | x8 | x8 | x8 | x8 | %38
 x8 | x8 | x8 | x8 | x8 | x8 ||[K:G] [CDF]8 | x8 | x2[K:bass] x6 | [C,D,-F,]8 | x8 | %49
 x2[K:treble] x6 | x8 | x8 | x8 | x8 | x8 | x8 | x4!>(! [^FA]4!>)! | [DG]4 x4 |] %58
V:5
 x8 | x8 | x8 | D,,8- | x8 | x8 | x8 | x8 | x8 | x8 | x8 | x8 | x8 | D,,8- | x8 | x8 | x8 | x8 | %18
 x8 | x8 | x8 | x8 | x8 | x8 ||[K:C] x8 | x8 | x8 | x8 | x8 | x8 | x8 | x8 | x8 | x8 | x8 | x8 | %36
 x8 | x8 | x8 | x8 | x8 | x8 | x8 | x2 D,6- ||[K:G] x8 | x8 | D,,8- | x8 | x8 | x8 | x8 | x8 | x8 | %53
 x8 | x8 | C,8 | x8 | x8 |] %58

